public/avatar/item1/48.svg

<svg xmlns:xlink="http://www.w3.org/1999/xlink" height="65.4" width="80.15" xmlns="http://www.w3.org/2000/svg"><use height="22.5" transform="translate(15.85 31.8)" width="33.3" xlink:href="#a"/><defs><g id="a" fill-rule="evenodd"><path d="M11 25.75q-.3-2.05.35-3.2.6-1.2 2-2.8 1.6-1.95 2.25-1.75.5.15 1.1 1.25l.85 3.25q-.1.55-3.6 5.6-1.25 1.75-2.1.65l-.85-3" fill="#050505" transform="translate(15.75 -18)"/><path d="m-12.25 27.75-.7.85-1.2-.1-.65-2.95-.55-4.2.2-1.6.6.6L-13 25.5l.75 2.25" transform="translate(15.75 -18)"/><path d="m-13.4 29.85-1.1-3.95q-.6-2.4-.6-5.5.1-.7.3-.15.35.55 1.45 5.2.35 1.4 1.3 3.4l-1.35 1" fill="#181919" transform="translate(15.75 -18)"/><path d="M.6 30.35q.3.4.1 1.25l.2 2.15-.5 4.6q-.65 2.55-5.15 2.1-1.9-.2-2.8-.95l-.5-.65-1.4-.4-2.65.15q-3.55-.1-3.65-4.9-.05-1.85.6-2.85l.7-.65V29q.05-.9 1.25-1.6l1.45-.2-.2-1.15q0-.75 1.2-1.8 1.25-1 5.6 1 1 .55 2.3 2.7l.15.45.1-.1 1.6.3q.5.35.35 1l1.25.75" transform="translate(15.75 -18)"/><path d="M15.3 19.95h.85l.1 1.05q-.25 1.35-.85 2.5-1.7 3.5-5.1 6.25-5.15 3.95-7.65 4.85l-1.05-.05-.2-.35q-.1.6-.4.65L.2 35q-1.45-1.9-1.35-2.35l.9-1.1H.9l.3.3.4-.65q7.3-4.15 9.4-5.6 1.35-.95 2.95-3.35l1.35-2.3" fill="#050505" transform="translate(15.75 -18)"/><path d="M-.1 30.75q1.05 2.15.3 6.2-.7 3.25-3.85 3.25-3.15 0-3.85-1.55-6.35-2.4-6.85-3.1l.5-6.5q.1-1 1.7-1.4l2.8-.35q1.35-.2 4.95 1.05 3.8 1.3 4.3 2.4" fill="#2e281c" transform="translate(15.75 -18)"/><path d="m-1.35 31.05 1.2-.2q.4.4.5 2.2 0 3.4-.4 4.8-.25.7-.75 1.2l-1.35.75-.65.3-2.3-.05q-1.05-.25-.85-.95l1.35-1.3.8-.95.45-1.3.1-1.05-.05-1.6q0-1 .4-1.3l1.55-.55" fill="#1f1a13" transform="translate(15.75 -18)"/><path d="m-5.5 29.55-1.4-.2-3.85-1.3q-.8-.4-.8-.9 0-2.6 1.4-2.55 2.9.2 4.6 1.2l1.6 1.65q1.15 1.4 1.15 1.6 0 .2-1.1.4l-1.6.1" fill="#2e281c" transform="translate(15.75 -18)"/><path d="m-4.85 30.2-.85-.15-.65-1.35-.8-.1q.5-1.25.5-1.65l-.05-1h1.25l2.3 2.6q.8.7.35.85-1.65.8-2.05.8m-4.1-.3 1.4.85q1.5 1.15 2.1 2.6.75 1.75.2 3.7-.55 1.85-1.6 1.7l-2.1-.55-.75-.65q1.6-3.6 1.35-5.2l-.6-2.45" fill="#1f1a13" transform="translate(15.75 -18)"/><path d="M-6.3 33.55q0 2.75-2.3 3.95-1.35.7-3.4.6-1.25-.1-2.25-1.25-1.15-1.25-1.15-3.1.05-2.75 2.35-3.85 2-.9 4.1 0Q-6.3 31-6.3 33.55" fill="#5c5038" transform="translate(15.75 -18)"/><path d="m-12.25 31.1.8.45q.9.65 1.25 1.45.5 1.05.4 2.35-.15 1.4-.95 1.95-1.15.75-1.8.15l.3-6.35" fill="#2b2518" transform="translate(15.75 -18)"/><path d="M-12.5 31.1q2.35.8 2.35 4.4 0 1.35-.95 1.8l-1.55.1q-2.4-.7-2.4-3.45 0-1.55.8-2.4.8-.8 1.75-.45" fill="#99f7ff" transform="translate(15.75 -18)"/><path d="M-14.65 35.65q-.9-1.55-.3-3.45.7-2.1 2.25-1.3.7.3 1.15.65l-1.1-.35q-1.15-.25-1.55.35-1.05 1.45-.45 4.1" fill="#4c412a" transform="translate(15.75 -18)"/><path d="m-10.6 25.35 1.65.2q1.35.35 1.5.55.2.2.1 1.15-.1.9-.35.95l-1.6-.35-1.6-.65q-.25-.25-.15-1t.45-.85" fill="#ababab" transform="translate(15.75 -18)"/><path d="M-1.1 30.2q-.3.45-1.45.4-1.3 0-1.3-.5l.05-.5q0-.55.65-.75 1.4-.25 1.9.4.15.15.15.95" fill="#241f16" transform="translate(15.75 -18)"/><path d="m-3.2 28.9 1.65.1q.75.3-.05.55l-1.65-.1q-.9-.3.05-.55" fill="#857b69" transform="translate(15.75 -18)"/><path d="m-6 31.1.9.15-.05.6-.85-.3v-.45" fill="red" transform="translate(15.75 -18)"/><path d="m.85 34.45-.95-.1.15-2.25.85.2q.45 1.85-.05 2.15" fill="#969d9e" transform="translate(15.75 -18)"/><path d="m15.75 21.35-1 2.35q-1 2.15-3.15 4.15-4.25 3.95-9.3 6.25-.6.25-.5-.65l-.2-1.1.35-.9q8.7-4.8 10.15-6.25 2.4-2.25 3.4-4.95.85.25.25 1.1" fill="#272929" transform="translate(15.75 -18)"/><path d="M11.5 25.35q-.1-1.8.4-2.65l1.85-2.4q1.5-1.7 1.85-1.65.45.1 1 1.6.6 1.55.4 2.25l-1.95 3.35q-1.75 2.65-2.3 2.75-1.25.15-1.25-3.25" fill="#272929" transform="translate(15.75 -18)"/><path d="m12 27.85.85-.1q.35-.1 2.75-3.8l1.25-3.1.25.8q.1.8-.45 1.75l-2.9 4.35-1 .85q-.4.15-.75-.75" fill="#1d1f1f" transform="translate(15.75 -18)"/><path d="M.95 33.95q-.95.2-1.1-.5-.15-.7.95-.9l1.25-.3.1 1.5-1.2.2" fill="#969d9e" transform="translate(15.75 -18)"/><path d="M-.6 36.35q.4-.05.25.7-.1.7-.35 1.1-.45.9-2.05 1.2l-2.3-.15q-1.35-.4-1.45-.75-.1-.35.2-.9l.55-.6 2.95.4q1.25 0 2.2-1" fill="#473e2b" transform="translate(15.75 -18)"/><path d="M-5 36.25q-.45-.1.5-1.65l2.4.25 1.4-.8q.75.75-.05 1.7-.7.8-1.75.8l-2.5-.3" fill="#473e2b" transform="translate(15.75 -18)"/><path d="m-5.9 29.75-2.7-.8q-2.1-.7-2.1-.95l-.05-.1 2.25.75 1 .1.45-.15h.8l.35 1.15" fill="#1f1a13" transform="translate(15.75 -18)"/><path d="m-9.35 33.85.7-.7 1.05-.1q1 0 1.15.6.2 1.1-.35 2.25-.95 1.7-2.4 2l-1.15.15-1.25.1h-.15l-.5-.15.95-.05 1.1-.75.45-.6.35-.75.05-2" fill="#4c412a" transform="translate(15.75 -18)"/><path d="m-10.4 31.3.6-.05q1.05.25.85.7-.15.25-.75.35l-.55-.45q-.35-.45-.15-.55" fill="#87744b" transform="translate(15.75 -18)"/><path d="M-8.3 30.85q.55.3.7.7.15.5-.8.3-1-.25-.85-.85.1-.45.95-.15" fill="#87744b" transform="translate(15.75 -18)"/><path d="m-13.5 28.85.4-.65.35-.15-.05.3 1.85.7-2.05-.5-.5.3" fill="#918368" transform="translate(15.75 -18)"/><path d="M-10 25.6q.2 1.8-.35 1.6-.05-1.7.35-1.6m.9.3q.2 1.8-.35 1.6-.05-1.7.35-1.6" fill="#f0f0f0" transform="translate(15.75 -18)"/><path d="M-8.1 26.2q.2 1.75-.35 1.55-.55-.2.35-1.55" fill="#f0f0f0" transform="translate(15.75 -18)"/><path d="M-10.85 32.6q.35.35.45 2.35.15 2-1.25 2.4-1.4.4-1.55-2.9-.05-1.45.95-1.95l1.4.1" fill="#64d2db" transform="translate(15.75 -18)"/><path d="M-12.6 32.2q.95.4.85 2.2-.05 1.8-1 1.7-.9-.05-.75-2.1.2-2.1.9-1.8" fill="#50bec7" transform="translate(15.75 -18)"/><path d="m-11.65 31.6-1.05-.15q-1.6.2-1.6 2.9 0 1.85 1.15 2.85-.9-.4-1.4-1.5-.5-1.05-.35-2.55.2-1.65 1.15-1.95 1.4-.35 2.1.4" fill="#f0feff" transform="translate(15.75 -18)"/><path d="M-11.5 32.2q.8.65.7 1.95-.15 1.25-.75.8-.55-.45-.45-1.75.05-1.35.5-1" fill="#235357" transform="translate(15.75 -18)"/><path d="m-1.6 35.15.4-.2.3-.35q1.15-.8.2 1.1l-.95.6q-1.5.75-1.6 0l.7-.6.95-.55m1 2.25q.25.3-.55 1.25l-.55.35-.05.05-1.5.35-.95-.05-.25-.25.05-.5q.3-.45 1-.45l1.1-.1 1.05-.35.4-.25.25-.05" fill="#3d3525" transform="translate(15.75 -18)"/><path d="m-11.6 27.1.35.5 1.4.6 1.2.45q-.85 0-2.4-.6l-1.1-.5.5-.25v-.25l.05.05" transform="translate(15.75 -18)"/><path d="M13.05 25.3q.4.55.05 1.45l-1.4 1.3-.1-.15.7-.8.45-.6-.05-.8-.5-.45-1 .7-.1-.25.9-.75q.5-.3 1.05.35" fill="#050505" transform="translate(15.75 -18)"/><path d="m1.8 33.85 3.35-1.8 4.6-3.3 3.05-2.6-.25.85-3 2.6q-1.3 1.25-7.3 4.6-.25.1-.45-.35" fill="#1d1f1f" transform="translate(15.75 -18)"/><path d="M2.1 31.45q3-1.4 7-4.2l3.1-2 .25.05.1.2L1.6 32.05l.5-.6M14.6 19q.9-.6 1.15-.35l.55.8-.35-.25q-.45-.15-.95.25-1.6 1.2-2.7 3.75-.5 1.1-.45 1.8l-.25.4q-.4-1.8.25-2.9 1.35-2.4 2.75-3.5" fill="#3e4242" transform="translate(15.75 -18)"/></g></defs></svg>

<?xml version="1.0" encoding="UTF-8" standalone="no"?>
<svg xmlns:xlink="http://www.w3.org/1999/xlink" height="65.4px" width="80.15px" xmlns="http://www.w3.org/2000/svg">
  <g transform="matrix(1.0, 0.0, 0.0, 1.0, 31.6, 13.8)">
    <use height="22.5" transform="matrix(1.0, 0.0, 0.0, 1.0, -15.75, 18.0)" width="33.3" xlink:href="#shape0"/>
  </g>
  <defs>
    <g id="shape0" transform="matrix(1.0, 0.0, 0.0, 1.0, 15.75, -18.0)">
      <path d="M11.0 25.75 Q10.7 23.7 11.35 22.55 11.95 21.35 13.35 19.75 14.95 17.8 15.6 18.0 16.1 18.15 16.7 19.25 L17.55 22.5 Q17.45 23.05 13.95 28.1 12.7 29.85 11.85 28.75 L11.0 25.75" fill="#050505" fill-rule="evenodd" stroke="none"/>
      <path d="M-12.25 27.75 L-12.95 28.6 -14.15 28.5 -14.8 25.55 -15.35 21.35 -15.15 19.75 -14.55 20.35 -13.0 25.5 -12.25 27.75" fill="#000000" fill-rule="evenodd" stroke="none"/>
      <path d="M-13.4 29.85 L-14.5 25.9 Q-15.1 23.5 -15.1 20.4 -15.0 19.7 -14.8 20.25 -14.45 20.8 -13.35 25.45 -13.0 26.85 -12.05 28.85 L-13.4 29.85" fill="#181919" fill-rule="evenodd" stroke="none"/>
      <path d="M0.6 30.35 Q0.9 30.75 0.7 31.6 L0.9 33.75 0.4 38.35 Q-0.25 40.9 -4.75 40.45 -6.65 40.25 -7.55 39.5 L-8.05 38.85 -9.45 38.45 -12.1 38.6 Q-15.65 38.5 -15.75 33.7 -15.8 31.85 -15.15 30.85 L-14.45 30.2 -14.45 29.0 Q-14.4 28.1 -13.2 27.4 L-11.75 27.2 -11.95 26.05 Q-11.95 25.3 -10.75 24.25 -9.5 23.25 -5.15 25.25 -4.15 25.8 -2.85 27.95 L-2.7 28.4 -2.6 28.3 -1.0 28.6 Q-0.5 28.95 -0.65 29.6 L0.6 30.35" fill="#000000" fill-rule="evenodd" stroke="none"/>
      <path d="M15.3 19.95 L16.15 19.95 16.25 21.0 Q16.0 22.35 15.4 23.5 13.7 27.0 10.3 29.75 5.15 33.7 2.65 34.6 L1.6 34.55 1.4 34.2 Q1.3 34.8 1.0 34.85 L0.2 35.0 Q-1.25 33.1 -1.15 32.65 L-0.25 31.55 0.9 31.55 1.2 31.85 1.6 31.2 Q8.9 27.05 11.0 25.6 12.35 24.65 13.95 22.25 L15.3 19.95" fill="#050505" fill-rule="evenodd" stroke="none"/>
      <path d="M-0.1 30.75 Q0.95 32.9 0.2 36.95 -0.5 40.2 -3.65 40.2 -6.8 40.2 -7.5 38.65 -13.85 36.25 -14.35 35.55 L-13.85 29.05 Q-13.75 28.05 -12.15 27.65 L-9.35 27.3 Q-8.0 27.1 -4.4 28.35 -0.6 29.65 -0.1 30.75" fill="#2e281c" fill-rule="evenodd" stroke="none"/>
      <path d="M-1.35 31.05 L-0.15 30.85 Q0.25 31.25 0.35 33.05 0.35 36.45 -0.05 37.85 -0.3 38.55 -0.8 39.05 L-2.15 39.8 -2.8 40.1 -5.1 40.05 Q-6.15 39.8 -5.95 39.1 L-4.6 37.8 -3.8 36.85 -3.35 35.55 -3.25 34.5 -3.3 32.9 Q-3.3 31.9 -2.9 31.6 L-1.35 31.05" fill="#1f1a13" fill-rule="evenodd" stroke="none"/>
      <path d="M-5.5 29.55 L-6.9 29.35 -10.75 28.05 Q-11.55 27.65 -11.55 27.15 -11.55 24.55 -10.15 24.6 -7.25 24.8 -5.55 25.8 L-3.95 27.45 Q-2.8 28.85 -2.8 29.05 -2.8 29.25 -3.9 29.45 L-5.5 29.55" fill="#2e281c" fill-rule="evenodd" stroke="none"/>
      <path d="M-4.85 30.2 L-5.7 30.05 -6.35 28.7 -7.15 28.6 Q-6.65 27.35 -6.65 26.95 L-6.7 25.95 -5.45 25.95 -3.15 28.55 Q-2.35 29.25 -2.8 29.4 -4.45 30.2 -4.85 30.2" fill="#1f1a13" fill-rule="evenodd" stroke="none"/>
      <path d="M-8.95 29.9 L-7.55 30.75 Q-6.05 31.9 -5.45 33.35 -4.7 35.1 -5.25 37.05 -5.8 38.9 -6.85 38.75 L-8.95 38.2 -9.7 37.55 Q-8.1 33.95 -8.35 32.35 L-8.95 29.9" fill="#1f1a13" fill-rule="evenodd" stroke="none"/>
      <path d="M-6.3 33.55 Q-6.3 36.3 -8.6 37.5 -9.95 38.2 -12.0 38.1 -13.25 38.0 -14.25 36.85 -15.4 35.6 -15.4 33.75 -15.35 31.0 -13.05 29.9 -11.05 29.0 -8.95 29.9 -6.3 31.0 -6.3 33.55" fill="#5c5038" fill-rule="evenodd" stroke="none"/>
      <path d="M-12.25 31.1 L-11.45 31.55 Q-10.55 32.2 -10.2 33.0 -9.7 34.05 -9.8 35.35 -9.95 36.75 -10.75 37.3 -11.9 38.05 -12.55 37.45 L-12.25 31.1" fill="#2b2518" fill-rule="evenodd" stroke="none"/>
      <path d="M-12.5 31.1 Q-10.15 31.9 -10.15 35.5 -10.15 36.85 -11.1 37.3 L-12.65 37.4 Q-15.05 36.7 -15.05 33.95 -15.05 32.4 -14.25 31.55 -13.45 30.75 -12.5 31.1" fill="#99f7ff" fill-rule="evenodd" stroke="none"/>
      <path d="M-14.65 35.65 Q-15.55 34.1 -14.95 32.2 -14.25 30.1 -12.7 30.9 -12.0 31.2 -11.55 31.55 L-12.65 31.2 Q-13.8 30.95 -14.2 31.55 -15.25 33.0 -14.65 35.65" fill="#4c412a" fill-rule="evenodd" stroke="none"/>
      <path d="M-10.6 25.35 L-8.95 25.55 Q-7.6 25.9 -7.45 26.1 -7.25 26.3 -7.35 27.25 -7.45 28.15 -7.7 28.2 L-9.3 27.85 -10.9 27.2 Q-11.15 26.95 -11.05 26.2 -10.95 25.45 -10.6 25.35" fill="#ababab" fill-rule="evenodd" stroke="none"/>
      <path d="M-1.1 30.2 Q-1.4 30.65 -2.55 30.6 -3.85 30.6 -3.85 30.1 L-3.8 29.6 Q-3.8 29.05 -3.15 28.85 -1.75 28.6 -1.25 29.25 -1.1 29.4 -1.1 30.2" fill="#241f16" fill-rule="evenodd" stroke="none"/>
      <path d="M-3.2 28.9 L-1.55 29.0 Q-0.8 29.3 -1.6 29.55 L-3.25 29.45 Q-4.15 29.15 -3.2 28.9" fill="#857b69" fill-rule="evenodd" stroke="none"/>
      <path d="M-6.0 31.1 L-5.1 31.25 -5.15 31.85 -6.0 31.55 -6.0 31.1" fill="#ff0000" fill-rule="evenodd" stroke="none"/>
      <path d="M0.85 34.45 L-0.1 34.35 0.05 32.1 0.9 32.3 Q1.35 34.15 0.85 34.45" fill="#969d9e" fill-rule="evenodd" stroke="none"/>
      <path d="M15.75 21.35 L14.75 23.7 Q13.75 25.85 11.6 27.85 7.35 31.8 2.3 34.1 1.7 34.35 1.8 33.45 L1.6 32.35 1.95 31.45 Q10.65 26.65 12.1 25.2 14.5 22.95 15.5 20.25 16.35 20.5 15.75 21.35" fill="#272929" fill-rule="evenodd" stroke="none"/>
      <path d="M11.5 25.35 Q11.4 23.55 11.9 22.7 L13.75 20.3 Q15.25 18.6 15.6 18.65 16.05 18.75 16.6 20.25 17.2 21.8 17.0 22.5 L15.05 25.85 Q13.3 28.5 12.75 28.6 11.5 28.75 11.5 25.35" fill="#272929" fill-rule="evenodd" stroke="none"/>
      <path d="M12.0 27.85 L12.85 27.75 Q13.2 27.65 15.6 23.95 L16.85 20.85 17.1 21.65 Q17.2 22.45 16.65 23.4 L13.75 27.75 12.75 28.6 Q12.35 28.75 12.0 27.85" fill="#1d1f1f" fill-rule="evenodd" stroke="none"/>
      <path d="M0.95 33.95 Q0.0 34.15 -0.15 33.45 -0.3 32.75 0.8 32.55 L2.05 32.25 2.15 33.75 0.95 33.95" fill="#969d9e" fill-rule="evenodd" stroke="none"/>
      <path d="M-0.6 36.35 Q-0.2 36.3 -0.35 37.05 -0.45 37.75 -0.7 38.15 -1.15 39.05 -2.75 39.35 L-5.05 39.2 Q-6.4 38.8 -6.5 38.45 -6.6 38.1 -6.3 37.55 L-5.75 36.95 -2.8 37.35 Q-1.55 37.35 -0.6 36.35" fill="#473e2b" fill-rule="evenodd" stroke="none"/>
      <path d="M-5.0 36.25 Q-5.45 36.15 -4.5 34.6 L-2.1 34.85 -0.7 34.05 Q0.05 34.8 -0.75 35.75 -1.45 36.55 -2.5 36.55 L-5.0 36.25" fill="#473e2b" fill-rule="evenodd" stroke="none"/>
      <path d="M-5.9 29.75 L-8.6 28.95 Q-10.7 28.25 -10.7 28.0 L-10.75 27.9 -8.5 28.65 -7.5 28.75 -7.05 28.6 -6.25 28.6 -5.9 29.75" fill="#1f1a13" fill-rule="evenodd" stroke="none"/>
      <path d="M-9.35 33.85 L-8.65 33.15 -7.6 33.05 Q-6.6 33.05 -6.45 33.65 -6.25 34.75 -6.8 35.9 -7.75 37.6 -9.2 37.9 L-10.35 38.05 -11.6 38.15 -11.75 38.15 -12.25 38.0 -11.3 37.95 -10.2 37.2 -9.75 36.6 -9.4 35.85 -9.35 33.85" fill="#4c412a" fill-rule="evenodd" stroke="none"/>
      <path d="M-10.4 31.3 L-9.8 31.25 Q-8.75 31.5 -8.95 31.95 -9.1 32.2 -9.7 32.3 L-10.25 31.85 Q-10.6 31.4 -10.4 31.3" fill="#87744b" fill-rule="evenodd" stroke="none"/>
      <path d="M-8.3 30.85 Q-7.75 31.15 -7.6 31.55 -7.45 32.05 -8.4 31.85 -9.4 31.6 -9.25 31.0 -9.15 30.55 -8.3 30.85" fill="#87744b" fill-rule="evenodd" stroke="none"/>
      <path d="M-13.5 28.85 L-13.1 28.2 -12.75 28.05 -12.8 28.35 -10.95 29.05 -13.0 28.55 -13.5 28.85" fill="#918368" fill-rule="evenodd" stroke="none"/>
      <path d="M-10.0 25.6 Q-9.8 27.4 -10.35 27.2 -10.4 25.5 -10.0 25.6" fill="#f0f0f0" fill-rule="evenodd" stroke="none"/>
      <path d="M-9.1 25.9 Q-8.9 27.7 -9.45 27.5 -9.5 25.8 -9.1 25.9" fill="#f0f0f0" fill-rule="evenodd" stroke="none"/>
      <path d="M-8.1 26.2 Q-7.9 27.95 -8.45 27.75 -9.0 27.55 -8.1 26.2" fill="#f0f0f0" fill-rule="evenodd" stroke="none"/>
      <path d="M-10.85 32.6 Q-10.5 32.95 -10.4 34.95 -10.25 36.95 -11.65 37.35 -13.05 37.75 -13.2 34.45 -13.25 33.0 -12.25 32.5 L-10.85 32.6" fill="#64d2db" fill-rule="evenodd" stroke="none"/>
      <path d="M-12.6 32.2 Q-11.65 32.6 -11.75 34.4 -11.8 36.2 -12.75 36.1 -13.65 36.05 -13.5 34.0 -13.3 31.9 -12.6 32.2" fill="#50bec7" fill-rule="evenodd" stroke="none"/>
      <path d="M-11.65 31.6 L-12.7 31.45 Q-14.3 31.65 -14.3 34.35 -14.3 36.2 -13.15 37.2 -14.05 36.8 -14.55 35.7 -15.05 34.65 -14.9 33.15 -14.7 31.5 -13.75 31.2 -12.35 30.85 -11.65 31.6" fill="#f0feff" fill-rule="evenodd" stroke="none"/>
      <path d="M-11.5 32.2 Q-10.7 32.85 -10.8 34.15 -10.95 35.4 -11.55 34.95 -12.1 34.5 -12.0 33.2 -11.95 31.85 -11.5 32.2" fill="#235357" fill-rule="evenodd" stroke="none"/>
      <path d="M-1.6 35.15 L-1.2 34.95 -0.9 34.6 Q0.25 33.8 -0.7 35.7 L-1.65 36.3 Q-3.15 37.05 -3.25 36.3 L-2.55 35.7 -1.6 35.15" fill="#3d3525" fill-rule="evenodd" stroke="none"/>
      <path d="M-0.6 37.4 Q-0.35 37.7 -1.15 38.65 L-1.7 39.0 -1.75 39.05 -3.25 39.4 -4.2 39.35 -4.45 39.1 -4.4 38.6 Q-4.1 38.15 -3.4 38.15 L-2.3 38.05 -1.25 37.7 -0.85 37.45 -0.6 37.4" fill="#3d3525" fill-rule="evenodd" stroke="none"/>
      <path d="M-11.6 27.1 L-11.25 27.6 -9.85 28.2 -8.65 28.65 Q-9.5 28.65 -11.05 28.05 L-12.15 27.55 -11.65 27.3 -11.65 27.05 -11.6 27.1" fill="#000000" fill-rule="evenodd" stroke="none"/>
      <path d="M13.05 25.3 Q13.45 25.85 13.1 26.75 L11.7 28.05 11.6 27.9 12.3 27.1 12.75 26.5 12.7 25.7 12.2 25.25 11.2 25.95 11.1 25.7 12.0 24.95 Q12.5 24.65 13.05 25.3" fill="#050505" fill-rule="evenodd" stroke="none"/>
      <path d="M1.8 33.85 L5.15 32.05 9.75 28.75 12.8 26.15 12.55 27.0 9.55 29.6 Q8.25 30.85 2.25 34.2 2.0 34.3 1.8 33.85" fill="#1d1f1f" fill-rule="evenodd" stroke="none"/>
      <path d="M2.1 31.45 Q5.1 30.05 9.1 27.25 L12.2 25.25 12.45 25.3 12.55 25.5 1.6 32.05 2.1 31.45" fill="#3e4242" fill-rule="evenodd" stroke="none"/>
      <path d="M14.6 19.0 Q15.5 18.4 15.75 18.65 L16.3 19.45 15.95 19.2 Q15.5 19.05 15.0 19.45 13.4 20.65 12.3 23.2 11.8 24.3 11.85 25.0 L11.6 25.4 Q11.2 23.6 11.85 22.5 13.2 20.1 14.6 19.0" fill="#3e4242" fill-rule="evenodd" stroke="none"/>
    </g>
  </defs>
</svg>
